io/female-sharp.svg

<svg xmlns="http://www.w3.org/2000/svg" viewBox="0 0 512 512" height="1em" width="1em">
  <path d="M430 190c0-95.94-78.06-174-174-174S82 94.06 82 190c0 88.49 66.4 161.77 152 172.61V394h-58v44h58v58h44v-58h58v-44h-58v-31.39c85.6-10.84 152-84.12 152-172.61Zm-304 0c0-71.68 58.32-130 130-130s130 58.32 130 130-58.32 130-130 130-130-58.32-130-130Z"/>
</svg>

<svg xmlns="http://www.w3.org/2000/svg" viewBox="0 0 512 512" height="1em" width="1em">
  <path d="M430,190c0-95.94-78.06-174-174-174S82,94.06,82,190c0,88.49,66.4,161.77,152,172.61V394H176v44h58v58h44V438h58V394H278V362.61C363.6,351.77,430,278.49,430,190Zm-304,0c0-71.68,58.32-130,130-130s130,58.32,130,130S327.68,320,256,320,126,261.68,126,190Z"/>
</svg>
